X:1
T:John McNeil's Reel
T:John McNeil's Reel
T:Peter Milne
C:Peter Milne
L:1/8
M:2/2
K:A
V:1 treble 
V:1
 .C || A,2 CE (FE)CE | AECE FECE | A,2 CE (FE)CE | FAGF EDCB, | A,2 CE FECE | AECE FEDC | %7
 B,ECE DFE=G | FA^GB cAA || f | eAfA eAca | eAfA e2 (f/g/a) | eAfA eAce | dfca B2 (d/e/f) | %14
 eAfA eAca | eAfA e2 (e/f/g) |1 agag fedc | BAGF EDCB, :|2 agaf ecde | fagb a2- a || z/ a/ | %21
 !fermata![Aa]6 z || %22

